X:1
T:Hollybush, The
R:reel
W: Next: Lads of Laois
C:Finbarr Dwyer (1946-)
H:Also in Emix: #695
D:Joe McHugh & Barry Carroll: The Long Finger
Z:id:hn-reel-468
M:C|
K:Dmix
A2FA DAFA|~A2de fded|cG~G2 EG~G2|cdec dcAG|
A2FA DAFA|~A2de fded|cG~G2 cdec|dAGE D4:|
|:Add^c defg|addc dcAB|cG~G2 (3B^cd eg|aged cdBc|
Add^c defg|addc dcAB|c2cB cdec|dAGE D4:|


